X:756
T:Mrs. Crotty's Christening
T:Midnight Reel, The
R:reel
D:John Williams
Z:id:hn-reel-756
M:C|
K:D
d3A BAFA | ~A2dA BAFA | BEED E4 | (3Bcd ef gfef |
dedA BAFA | ~A2dA BAFA | BEED E4 |1 (3Bcd ef d4 :|2 (3Bcd ef d2Ad ||
|: d2Ad d2Ad | d2ef gecA | d2Ad d2FA |1 B2AF GFEF :|2 B2AF E4 ||
P:variations
|: d3A BAFA | ~A2dA BAFA | BEED E2FA | (3Bcd ce dcBA :|
|: d2ed d2ed | d2ef gfec | defd Adfa |  bfaf gefe :|

